X:15
T:Martin O'Connor's                                                             
M:2/4                                                                           
L:1/8                                                                           
K:D                                                                             
FE ED/E/|FD D>E|FE DA|dB BA|                                                    
FE ED/E/|FD D>E|1 FD d2|B2 BA:|2 FD d2|B4|                                      
|:Fd d>e|ge ef|d>c de|dB BA|                                                    
Fd d>e|fe ef|1de/d/ cA|B2 BA:|2 de/d/ cA|B4 |>|
